X:685
T:Mrs. Chisholm
R:Strathspey
C:Niel Gow
B:The Athole Collection
M:C
L:1/8
K:A
c|A<A c>A BFFB|A<A c>A eAcA|d>Bc>A B>AF>B|A>FE>C ~A,2 A,:|
f/g/|a<ea<c B>A Ffg|a>ef>c ea ed/c/|d>Bc>A B>AF>B|A>FE>C ~A,2 Af/g/|
a<ef<c B>A Ff/g/|a>ef>c Aa ed/c/|d<f c<a B>A F>B|A>FE>C ~A,2 A,||

